!!!!SEGMENT: pl-kk--kk-i-7--050-002_cadeac-pierre--missa-ego-sum-et-in-terra.krn
!!!cenid: 16xx:865
!!!COM: Cadéac, Pierre
!!!COM-rism: pe30006011
!!!CDT: ~1500-~1599
!!!CNT: German
!!!OTL: Missa Ego sum – Et in terra
!!!PDT:
!!!AGN: Sacred; Mass
!!!SMS-siglum: PL-Kk
!!!SMS-shelfmark: Kk.I.7
!!!NIFC-rismID: 300258127
!!!URL-scan: http://repozytorium.nifc.pl/skany/pl-kk-nut--i-7
!!!ONB-nifc: UWAGA: C (skan 0046-0047, s.86-88), A (0130-0131, s.80-82), T(0206-0207, s.75-77), B(0295, s.76-77). Części Mszy: 1. Kyrie, 2. Et in terra, 3. Sanctus
!!!SMS-variant:
!!!SMS-altvar:
**kern	**text	**kern	**text	**kern	**text	**kern	**text
*part4	*part4	*part3	*part3	*part2	*part2	*part1	*part1
*staff4	*staff4	*staff3	*staff3	*staff2	*staff2	*staff1	*staff1
*group1	*	*group1	*	*group1	*	*group1	*
*I"BASSVS.	*	*I"TENOR.	*	*I"ALTVS.	*	*I"CANTVS.	*
*I'B	*	*I'T	*	*I'A	*	*I'S	*
*clefC4	*	*clefC3	*	*clefC2	*	*clefG2	*
*k[]	*	*k[]	*	*k[]	*	*k[]	*
*M2/1	*	*M2/1	*	*M2/1	*	*M2/1	*
*met(C|)	*	*met(C|)	*	*met(C|)	*	*met(C|)	*
=1-	=1-	=1-	=1-	=1-	=1-	=1-	=1-
!	!	!	!	!LO:TX:b:t=Et in terra	!	!LO:TX:b:t=Et in terra	!
!	!	!	!	!	!	!LO:TX:a:t=7.	!
0r	.	1G	Et	00r	.	00r	.
.	.	1.d	in	.	.	.	.
=2-	=2-	=2-	=2-	=2-	=2-	=2-	=2-
!LO:TX:t=P:problem:kreska pseudotaktowa	!	!	!	!	!	!	!
1r	.	.	.	.	.	.	.
*	*	*2\right	*	*	*	*	*
.	.	2d\	ter-	.	.	.	.
1C	Et	1c	-ra	.	.	.	.
=3-	=3-	=3-	=3-	=3-	=3-	=3-	=3-
!	!	!	!	!LO:TX:t=P:problem:kreska pseudotaktowa	!	!	!
1.G	in	2B/	pax	0r	.	0r	.
.	.	1d	ho-	.	.	.	.
2G/	ter-	4c/	.	.	.	.	.
.	.	4B/	.	.	.	.	.
=4-	=4-	=4-	=4-	=4-	=4-	=4-	=4-
!LO:TX:t=P:problem:kreska pseudotaktowa	!	!	!	!	!	!LO:TX:t=P:problem:kreska pseudotaktowa	!
1F	-ra	2A/	-mi-	1c	Bo-	1r	.
.	.	2A/	-ni-	.	.	.	.
!	!	!LO:TX:t=P:problem:kreska pseudotaktowa	!	!	!	!	!
2E/	pax	1G	-b(us)	1.g	-nae	2r	.
1G	ho-	.	.	.	.	2g/	Bo-
=5-	=5-	=5-	=5-	=5-	=5-	=5-	=5-
*	*	*	*	*2\right	*	*2\right	*
.	.	2rA	.	.	.	2b\	-nae
!	!	!	!	!	!	!LO:TX:t=P:problem:kreska pseudotaktowa	!
4F/	.	2G/	bo-	2g\	Vo-	2cc\	vo-
4E/	.	.	.	.	.	.	.
2D/	-mi-	2A/	-nae	1f	-lun-	1dd	-lun-
2D/	-ni-	2B/	Vo-	.	.	.	.
=6-	=6-	=6-	=6-	=6-	=6-	=6-	=6-
!LO:TX:t=P:problem:kreska pseudotaktowa	!	!	!	!LO:TX:t=P:problem:kreska pseudotaktowa::między nutą a kropką	!	!	!
1C	-bus	1.c	-lun-	1.e	-ta-	1.ee	.
00r	.	.	.	.	.	.	.
!	!	!	!	!	!	!LO:TX:t=P:problem:kreska pseudotaktowa	!
.	.	2G/	-ta-	1g	.	2dd\	-ta-
=7-	=7-	=7-	=7-	=7-	=7-	=7-	=7-
!	!	!LO:TX:t=P:problem:kreska pseudotaktowa	!	!	!	!	!
.	.	1G	-tis	.	.	4dd\	.
.	.	.	.	.	.	4cc\	.
.	.	.	.	4f\	.	4dd\	.
.	.	.	.	4e\	.	4ee\	.
!	!	!	!	!	!	!LO:TX:t=P:problem:rozdzielacz słów / znak oddechu:global	!
.	.	1rc	.	4d/	.	1ff,	-tis
.	.	.	.	4e/	.	.	.
.	.	.	.	2f\	.	.	.
=8-	=8-	=8-	=8-	=8-	=8-	=8-	=8-
*	*	*	*	*lig	*	*	*
!	!	!	!	!	!	!LO:TX:t=P:problem:kreska pseudotaktowa	!
.	.	1c	Lau-	1g	-tis.	1ee	Lau-
!	!	!	!	!LO:TX:t=P:problem:kreska pseudotaktowa	!	!	!
2rF	.	0g	-da-	1G	.	2.dd\	-da-
2G/	Lau-	.	.	.	.	.	.
.	.	.	.	.	.	4cc\	.
*2\right	*	*	*	*Xlig	*	*	*
=9-	=9-	=9-	=9-	=9-	=9-	=9-	=9-
2B\	-da-	.	.	0re	.	2dd\	.
!LO:TX:t=P:problem:kreska pseudotaktowa	!	!	!	!	!	!	!
2c\	-m(us)	.	.	.	.	1ee	-m(us)
1d	Te	1f	-m(us)	.	.	.	.
!	!	!	!	!	!	!LO:TX:t=P:problem:kreska pseudotaktowa	!
.	.	.	.	.	.	2dd\	Te
=10-	=10-	=10-	=10-	=10-	=10-	=10-	=10-
!	!	!LO:TX:t=P:problem:rozdzielacz słów / znak oddechu:global	!	!LO:TX:t=P:problem:kreska pseudotaktowa	!	!	!
2.c\	be-	2e,\	Te	1re	.	2.ee\	.
.	.	1e	be-	.	.	.	.
4B\	-ne-	.	.	.	.	4dd\	.
!	!	!	!	!	!	!LO:TX:t=P:problem:kreska pseudotaktowa	!
2A\	-di-	.	.	1c	be-	1cc	.
!LO:TX:t=P:problem:kreska pseudotaktowa	!	!LO:TX:t=P:problem:kreska pseudotaktowa	!	!	!	!	!
2A\	-ci-	2c/	-ne-	.	.	.	.
=11-	=11-	=11-	=11-	=11-	=11-	=11-	=11-
1.G	.	1d	-di-	2g\	-ne-	2b/	be-
.	.	.	.	1g	-di-	2g/	-ne-
.	.	2G/	.	.	.	2b\	-di-
!	!	!	!	!	!	!LO:TX:t=P:problem:kreska pseudotaktowa	!
4F/	-m(us)	1c	ci-	2g\	-ci-	2cc\	-ci-
4E/	.	.	.	.	.	.	.
=12-	=12-	=12-	=12-	=12-	=12-	=12-	=12-
1D	.	.	.	1f	.	1dd	-m(us)
.	.	2B/	-m(us)	.	.	.	.
!LO:TX:t=P:problem:kreska pseudotaktowa	!	!LO:TX:t=P:problem:kreska pseudotaktowa	!	!	!	!	!
1C	Te.	1c	Te	2e\	-m(us)	1ee	Te
.	.	.	.	2.g\	Te	.	.
=13-	=13-	=13-	=13-	=13-	=13-	=13-	=13-
0r	.	1rg	.	.	.	2dd\	.
.	.	.	.	4f\	.	.	.
!	!	!	!	!LO:TX:t=P:problem:kreska pseudotaktowa	!	!	!
.	.	.	.	2e/	.	1cc	.
.	.	2rA	.	1d	a-	.	.
.	.	2G/	a-	.	.	2b\	.
=14-	=14-	=14-	=14-	=14-	=14-	=14-	=14-
!	!	!	!	!	!	!LO:TX:t=P:problem:kreska pseudotaktowa	!
2rD	.	2A/	-do-	2c/	-do-	1cc	.
2C/	a-	1c	-ra-	1e	-ra-	.	.
1.G	-do-	.	.	.	.	1rb	.
.	.	4B/	.	4d/	.	.	.
!	!	!LO:TX:t=P:problem:kreska pseudotaktowa	!	!	!	!	!
.	.	4A/	.	4c/	.	.	.
=15-	=15-	=15-	=15-	=15-	=15-	=15-	=15-
.	.	4B/	.	2d/	-mus	1g	a-
.	.	4c/	.	.	.	.	.
!LO:TX:t=P:problem:kreska pseudotaktowa	!	!	!	!	!	!	!
2G/	-ra-	2.d\	.	2g\	.	.	.
!	!	!	!	!LO:TX:t=P:problem:kreska pseudotaktowa	!	!	!
2D/	-m(us)	.	.	1f	Te.	1.dd	-do-
.	.	4e\	.	.	.	.	.
1d	Te	1f\	.	.	.	.	.
=16-	=16-	=16-	=16-	=16-	=16-	=16-	=16-
.	.	.	.	1re	.	.	.
4c\	.	4e\	.	.	.	2dd\	-ra-
4B\	.	4d\	.	.	.	.	.
!	!	!	!	!	!	!LO:TX:t=P:problem:kreska pseudotaktowa	!
1A	.	2e\	.	1c	glo-	1cc	-m(us)
!	!	!LO:TX:t=P:problem:kreska pseudotaktowa	!	!	!	!	!
!	!	!LO:SIC:v:t=custos d	!	!	!	!	!
.	.	2f\	-mus	.	.	.	.
!	!	!LO:LB:g=original	!	!	!	!LO:LB:g=original	!
=17-	=17-	=17-	=17-	=17-	=17-	=17-	=17-
!LO:TX:t=P:problem:kreska pseudotaktowa	!	!	!	!	!	!	!
1G	.	2d\	Te	1.g	-ri-	2b\	Te
.	.	2G/	glo-	.	.	1dd	glo-
1rA	.	2B/	-ri-	.	.	.	.
.	.	2c/	-fi-	2g\	-fi-	4cc\	.
.	.	.	.	.	.	4b\	.
=18-	=18-	=18-	=18-	=18-	=18-	=18-	=18-
1D	glo-	1d	-ca-	1f	-ca-	1a	.
2.E/	-ri-	2B/	.	1e	.	2.g/	-ri-
.	.	2.B/	.	.	.	.	.
!LO:TX:t=P:problem:kreska pseudotaktowa	!	!	!	!	!	!	!
4F/	-fi-	.	.	.	.	4a/	-fi-
!LO:LB:g=original	!	!	!	!	!	!	!
=19-	=19-	=19-	=19-	=19-	=19-	=19-	=19-
2G/	-ca-	.	.	2d/	.	2b/	-ca-
.	.	4c/	.	.	.	.	.
!	!	!	!	!LO:TX:t=P:problem:kreska pseudotaktowa:między nutą a kropką	!	!	!
!	!	!	!	!LO:SIC:v:t=custos f	!	!	!
2D/	.	2d\	.	2.f\	.	1a	.
2F/	-m(us)	2c/	.	.	.	.	.
!	!	!	!	!LO:LB:g=original	!	!	!
.	.	.	.	4e/	.	.	.
2G/	.	2B/	.	4d/	.	1g	-m(us)
.	.	.	.	4c/	.	.	.
=20-	=20-	=20-	=20-	=20-	=20-	=20-	=20-
1D	.	1A	-mus	1.d	.	.	.
.	.	.	.	.	.	2f#X/	.
!LO:TX:t=P:problem:kreska pseudotaktowa	!	!LO:TX:t=P:problem:kreska pseudotaktowa	!	!	!	!LO:TX:t=P:problem:kreska pseudotaktowa	!
0.G	Te.	1G	Te.	.	.	0.g	Te.
.	.	.	.	4c/	-mus	.	.
.	.	.	.	4B/	.	.	.
=21-	=21-	=21-	=21-	=21-	=21-	=21-	=21-
!	!	!	!	!LO:TX:t=P:problem:kreska pseudotaktowa	!	!	!
.	.	2r	.	1B	Te.	.	.
.	.	2.d\	Gra-	.	.	.	.
.	.	.	.	1r	.	.	.
.	.	4d\	-ti-	.	.	.	.
.	.	2d\	-as	.	.	.	.
=22-	=22-	=22-	=22-	=22-	=22-	=22-	=22-
00r	.	2.c\	a-	2.g\	Gra-	1rff	.
.	.	4d\	-gi-	4g\	-ti-	.	.
.	.	2e\	-m(us)	2g\	-as	2r	.
.	.	1d	Ti-	1f	a-	2.dd\	Gra-
=23-	=23-	=23-	=23-	=23-	=23-	=23-	=23-
.	.	.	.	.	.	.	.
.	.	.	.	.	.	4dd\	-ti-
!	!	!	!	!	!	!LO:TX:t=P:problem:kreska pseudotaktowa	!
.	.	4c/	.	2g\	-gi-	2dd\	-as
.	.	4B/	.	.	.	.	.
!	!	!LO:TX:t=P:problem:kreska pseudotaktowa	!	!LO:TX:t=P:problem:kreska pseudotaktowa	!	!	!
.	.	1A	-bi	1a	-m(us)	2.cc\	a-
.	.	.	.	.	.	4dd\	-gi-
=24-	=24-	=24-	=24-	=24-	=24-	=24-	=24-
2rF	.	00r	.	2.g\	a-	2ee\	-m(us)
2G/	pro-	.	.	.	.	1dd	Ti-
.	.	.	.	8f\L	.	.	.
.	.	.	.	8e\J	.	.	.
2B\	-pter	.	.	2d/	.	.	.
!LO:TX:t=P:problem:kreska pseudotaktowa	!	!	!	!	!	!	!
2c\	ma-	.	.	1g	.	4cc\	.
.	.	.	.	.	.	4b\	.
=25-	=25-	=25-	=25-	=25-	=25-	=25-	=25-
1d	-gna(m)	.	.	.	.	2a,</	-bi
!	!	!	!	!LO:TX:t=P:problem:kreska pseudotaktowa	!	!LO:TX:t=P:problem:kreska pseudotaktowa	!
.	.	.	.	2f\	.	2a/	p(ro)-
2.c\	glo-	.	.	2a\	.	0cc	-pter
.	.	.	.	1g	.	.	.
4B\	-ri-	.	.	.	.	.	.
=26-	=26-	=26-	=26-	=26-	=26-	=26-	=26-
!	!	!LO:TX:t=P:problem:kreska pseudotaktowa	!	!	!	!	!
2A/	-am	1r	.	.	.	.	.
2A/	tu-	.	.	2f\	.	.	.
!LO:TX:t=P:problem:kreska pseudotaktowa	!	!	!	!	!	!	!
1G	-am	2r	.	1g	.	1b	ma-
.	.	1d	Do-	.	.	.	.
=27-	=27-	=27-	=27-	=27-	=27-	=27-	=27-
0r	.	.	.	2f\	.	2a,</	-gna(m)
.	.	2c\	-mi-	2.a\	-gi-	2.cc/	glo-
.	.	1e	-ne	.	.	.	.
.	.	.	.	4g\	.	(4b/	-(ri)-
.	.	.	.	1g	-m(us)	4a/)	.
.	.	.	.	.	.	4g/	-am
=28-	=28-	=28-	=28-	=28-	=28-	=28-	=28-
!LO:TX:t=P:problem:kreska pseudotaktowa	!	!	!	!	!	!	!
1r	.	1d	De-	.	.	1a	tu-
.	.	.	.	2f\	Ti-	.	.
!	!	!	!	!LO:TX:t=P:problem:kreska pseudotaktowa	!	!LO:TX:t=P:problem:kreska pseudotaktowa	!
2r	.	2G/	-us	1g	-bi	1g	-am
1G	Rex	1d	Rex	.	.	.	.
=29-	=29-	=29-	=29-	=29-	=29-	=29-	=29-
.	.	.	.	0r	.	2rg	.
2F/	coe-	2f\	coe-	.	.	1a	glo-
*lig	*	*	*	*	*	*	*
1A	-le-	2e\	-le-	.	.	.	.
.	.	2c\	.	.	.	2cc\	-ri-
=30-	=30-	=30-	=30-	=30-	=30-	=30-	=30-
!	!	!LO:TX:t=P:problem:kreska pseudotaktowa	!	!	!	!	!
1G	.	0d	-ſtis	2r	.	2b/	-am
.	.	.	.	1g	De-	2g/	tu-
*Xlig	*	*	*	*	*	*	*
!LO:TX:t=P:problem:rozdzielacz słów / znak oddechu:global	!	!	!	!	!	!	!
2D,</	-ſtis.	.	.	.	.	2a,</	-am
!	!	!	!	!LO:TX:t=P:problem:kreska pseudotaktowa	!	!	!
1D	DE-	.	.	2f\	-us	1dd\	DE-
=31-	=31-	=31-	=31-	=31-	=31-	=31-	=31-
.	.	1A	DE-	1a	Pa-	.	.
!	!	!	!	!	!	!LO:TX:t=P:problem:kreska pseudotaktowa	!
!	!	!	!	!	!	!LO:SIC:v:t=custos ee	!
2F/	-(us)	.	.	.	.	2cc\	-US
!	!	!	!	!LO:TX:t=P:problem:kreska pseudotaktowa	!	!LO:PB:g=original	!
2E/	Pa-	2B/	-(us)	0g	-ter	1ee	Pa-
!LO:TX:t=P:problem:kreska pseudotaktowa	!	!	!	!	!	!	!
2C/	-ter	2c/	.	.	.	.	.
=32-	=32-	=32-	=32-	=32-	=32-	=32-	=32-
2.G/	O-	2.B/	Pa-	.	.	1.dd	-ter
4A/	.	4c/	.	.	.	.	.
!	!	!	!	!LO:TX:t=P:problem:brak połowy taktu nr 32	!	!	!
2B\	.	2d\	-ter	1ryy	.	.	.
1c	.	1e	O-	.	.	2g/	.
=33-	=33-	=33-	=33-	=33-	=33-	=33-	=33-
.	.	.	.	2e\	O-	1cc	O-
4B\	.	4d\	.	2.g\	-mni-	.	.
4A\	.	4c\	.	.	.	.	.
2G/	-mni-	2e\	.	.	.	2b/	-mni-
.	.	.	.	4f/	.	.	.
2B\	-po-	1d	-mni-	4e/	.	2g/	-po-
.	.	.	.	4d/	.	.	.
=34-	=34-	=34-	=34-	=34-	=34-	=34-	=34-
!	!	!	!	!	!	!LO:TX:t=P:problem:kreska pseudotaktowa	!
1A	.	.	.	1e	-po-	1a	-tens
.	.	2c\	-po-	.	.	.	.
!LO:TX:t=P:problem:kreska pseudotaktowa	!	!LO:TX:t=P:problem:kreska pseudotaktowa	!	!LO:TX:t=P:problem:kreska pseudotaktowa	!	!	!
!	!	!LO:SIC:v:t=custos f	!	!	!	!	!
!	!	!LO:TX:b:t=Vertae	!	!	!	!	!
1D	-tens	1d	-tens	0d	-tens	2rg	.
.	.	.	.	.	.	2.a/	D(o-
!	!	!LO:PB:g=original	!	!	!	!	!
=35-	=35-	=35-	=35-	=35-	=35-	=35-	=35-
2rc	.	2r	.	.	.	.	.
.	.	.	.	.	.	4a/	-mi)-
2.d\	Do-	2.f\	Do-	.	.	2a/	-ne
.	.	.	.	1r	.	2b/	.
4d\	-mi-	4f\	-mi-	.	.	.	.
2d\	-ne	2f\	-ne	.	.	1a/	Fi-
=36-	=36-	=36-	=36-	=36-	=36-	=36-	=36-
2c\	Fi-	2e\	Fi-	2r	.	.	.
2B\	-li	2d\	.	1d	U-	2g/	.
!LO:TX:t=P:problem:kreska pseudotaktowa	!	!	!	!	!	!	!
!LO:SIC:v:t=custos G	!	!LO:TX:t=P:problem:kreska pseudotaktowa	!	!	!	!LO:TX:t=P:problem:kreska pseudotaktowa	!
1A	u-	1e	-li	.	.	1a	-li
!	!	!	!	!LO:TX:t=P:problem:kreska pseudotaktowa	!	!	!
!	!	!	!	!LO:SIC:v:t=custos B	!	!	!
.	.	.	.	2c/	-ni-	.	.
!LO:LB:g=original	!	!	!	!LO:LB:g=original	!	!	!
=37-	=37-	=37-	=37-	=37-	=37-	=37-	=37-
2G/	-ni-	0r	.	2B/	-ge-	0r	.
1F	.	.	.	1A	.	.	.
4E/	-ge-	.	.	1d	.	.	.
4D/	.	.	.	.	.	.	.
=38-	=38-	=38-	=38-	=38-	=38-	=38-	=38-
!	!	!	!	!	!	!LO:TX:t=P:problem:kreska pseudotaktowa	!
2E/	.	2re	.	.	.	1r	.
2E/	-ni-	1g	Je-	2c/	-ni-	.	.
!LO:TX:t=P:problem:kreska pseudotaktowa	!	!	!	!	!	!	!
1D	-te	.	.	1d	-te	1dd	Je-
.	.	2f\	-su	.	.	.	.
=39-	=39-	=39-	=39-	=39-	=39-	=39-	=39-
1r	.	2e\	Chri-	2A/	.	2cc\	-su
.	.	1d	.	1f	Je-	2b\	X-
!	!	!	!	!	!	!LO:TX:t=P:problem:kreska pseudotaktowa	!
2r	.	.	.	.	.	1a	-te
1d\	Je-	4c/	.	4e/	-su	.	.
!	!	!LO:TX:t=P:problem:kreska pseudotaktowa	!	!LO:TX:t=P:problem:kreska pseudotaktowa	!	!	!
.	.	4B/	.	4d/	.	.	.
=40-	=40-	=40-	=40-	=40-	=40-	=40-	=40-
.	.	2A/	.	2e\	Chri-	1rff	.
2c\	-su	2.e\	.	1g	.	.	.
*lig	*	*	*	*	*	*	*
1d	X-	.	.	.	.	2r	.
.	.	4d\	.	.	.	.	.
.	.	1d	.	2f\	.	1a/	Do-
=41-	=41-	=41-	=41-	=41-	=41-	=41-	=41-
1A	.	.	.	2.e\	.	.	.
.	.	2c/	.	.	.	2cc\	-mi-
.	.	.	.	4f\	.	.	.
*Xlig	*	*	*	*	*	*	*
*lig	*	*	*	*	*	*	*
!	!	!LO:TX:t=P:problem:kreska pseudotaktowa	!	!LO:TX:t=P:problem:kreska pseudotaktowa	!	!	!
1G	-te	0d	-ste	1g	-ste	2b/	-ne
!	!	!	!	!	!	!LO:TX:t=P:problem:kreska pseudotaktowa	!
.	.	.	.	.	.	2g/	De-
=42-	=42-	=42-	=42-	=42-	=42-	=42-	=42-
!LO:TX:t=P:problem:kreska pseudotaktowa	!	!	!	!	!	!	!
1D	.	.	.	2r	.	1a,<	-us
.	.	.	.	1d	Do-	.	.
*Xlig	*	*	*	*	*	*	*
00r	.	0r	.	.	.	1a	A-
.	.	.	.	2f\	-mi-	.	.
=43-	=43-	=43-	=43-	=43-	=43-	=43-	=43-
.	.	.	.	2e/	-ne	2b\	.
!	!	!	!	!LO:TX:t=P:problem:kreska pseudotaktowa	!	!	!
.	.	.	.	2c/	.	2cc\	.
.	.	2r	.	2d/	DE-	2a/	-gnus
.	.	1d	Do-	2.f\	-(us)	1dd	De-
=44-	=44-	=44-	=44-	=44-	=44-	=44-	=44-
.	.	.	.	.	.	.	.
.	.	.	.	4g\	.	.	.
!	!	!	!	!LO:TX:t=P:problem:kreska pseudotaktowa	!	!	!
.	.	2f\	-mi-	2a\	Ag-	4cc\	.
!	!	!	!	!	!	!LO:TX:t=P:problem:kreska pseudotaktowa	!
.	.	.	.	.	.	4b\	.
!LO:TX:t=P:problem:kreska pseudotaktowa	!	!	!	!	!	!	!
0r	.	2e\	-ne	2g,\	-n(us)	4cc\	.
.	.	.	.	.	.	4dd\	.
!	!	!LO:TX:t=P:problem:kreska pseudotaktowa	!	!	!	!	!
.	.	2c\	DE-	2e\	De-	1ee	.
=45-	=45-	=45-	=45-	=45-	=45-	=45-	=45-
.	.	1d	-(us)	2.f\	.	.	.
.	.	.	.	.	.	1dd	.
.	.	.	.	4g\	.	.	.
2r	.	2.A/	A-	2e,<\	-i	.	.
1A\	A-	.	.	1e\	Fi-	2.cc\	.
.	.	4B/	.	.	.	.	.
=46-	=46-	=46-	=46-	=46-	=46-	=46-	=46-
.	.	4c\	.	.	.	.	.
.	.	4d\	.	.	.	4b/	.
2c\	.	2.e\	.	2e\	-li-	4g/	.
.	.	.	.	.	.	4a/	.
2B\	.	.	.	2f\	-(us)	1b	-i
.	.	4d\	-gnus	.	.	.	.
2G/	-gnus	1d\	De-	2g\	Pa-	.	.
=47-	=47-	=47-	=47-	=47-	=47-	=47-	=47-
!	!	!	!	!LO:TX:t=P:problem:kreska pseudotaktowa	!	!	!
0A	De-	.	.	1e	-tris	2a/	Fi-
.	.	4c/	.	.	.	1a	-li-
.	.	4B/	.	.	.	.	.
!	!	!LO:TX:t=P:problem:kreska pseudotaktowa	!	!	!	!	!
.	.	1c	-i	1r	.	.	.
!	!	!	!	!	!	!LO:TX:t=P:problem:kreska pseudotaktowa	!
.	.	.	.	.	.	2cc\	-(us)
=48-	=48-	=48-	=48-	=48-	=48-	=48-	=48-
!LO:TX:t=P:problem:kreska pseudotaktowa	!	!	!	!	!	!	!
1G	-i	2d\	Fi-	2r	.	2b/	Pa-
!	!	!	!	!LO:TX:t=P:problem:kreska pseudotaktowa	!	!	!
.	.	2B/	-li-	2d/	Fi-	2g/	.
!	!	!LO:TX:t=P:problem:kreska pseudotaktowa	!	!	!	!LO:TX:t=P:problem:kreska pseudotaktowa	!
2rF	.	1A	-us	2.f\	-li-	1a	.
1D/	Fi-	.	.	.	.	.	.
.	.	.	.	4e/	.	.	.
!	!	!	!	!	!	!LO:LB:g=original	!
=49-	=49-	=49-	=49-	=49-	=49-	=49-	=49-
.	.	1A	Pa-	2d/	-us	2fny/	.
2F/	-li-	.	.	2c/	.	2.a/	.
*	*	*	*	*lig	*	*	*
2E/	-(us)	2B/	.	1e	Pa-	.	.
.	.	.	.	.	.	4g/	.
2C/	Pa-	2c/	.	.	.	1g/	.
=50-	=50-	=50-	=50-	=50-	=50-	=50-	=50-
1D	.	1A	.	1d	.	.	.
.	.	.	.	.	.	2f/	.
*	*	*	*	*Xlig	*	*	*
1Gl;	-tris.	1Bl;	-tris	1dl;	-tris.	1gl;	-tris.
!	!	!LO:LB:g=original	!	!LO:LB:g=original	!	!	!
=51||	=51||	=51||	=51||	=51||	=51||	=51||	=51||
*M2/1	*	*M2/1	*	*M2/1	*	*M2/1	*
*met(C|)	*	*met(C|)	*	*met(C|)	*	*met(C|)	*
00r	.	0rc	.	1G	Qui	00g\	Qui
.	.	.	.	2G/	tol-	.	.
.	.	.	.	2G/	-lis	.	.
=52-	=52-	=52-	=52-	=52-	=52-	=52-	=52-
.	.	1G	Qui	2.B/	pec-	.	.
!	!	!	!	!LO:TX:t=P:problem:kreska pseudotaktowa	!	!	!
.	.	.	.	4c/	.	.	.
.	.	2G/	tol-	2d/	-ca-	.	.
.	.	2G/	-lis	2e/	-ta	.	.
=53-	=53-	=53-	=53-	=53-	=53-	=53-	=53-
0rA	.	2.B/	pec-	2d/	mun-	0g	tol-
.	.	.	.	1G	.	.	.
.	.	4c/	.	.	.	.	.
.	.	2d\	-ca-	.	.	.	.
.	.	2e\	-ta	1g	.	.	.
=54-	=54-	=54-	=54-	=54-	=54-	=54-	=54-
!LO:TX:t=P:problem:kreska pseudotaktowa	!	!LO:TX:t=P:problem:kreska pseudotaktowa	!	!	!	!	!
1rA	.	1d	mun-	.	.	1a,<	-lis
!	!	!	!	!LO:TX:t=P:problem:kreska pseudotaktowa	!	!	!
.	.	.	.	2f\	.	.	.
!	!	!	!	!	!	!LO:TX:t=P:problem:kreska pseudotaktowa	!
1C	Qui	2G/	-di	1g	-di	1cc	pec-
*	*	*	*ij	*	*	*	*
.	.	2.c\	pec-	.	.	.	.
=55-	=55-	=55-	=55-	=55-	=55-	=55-	=55-
2C/	tol-	.	.	2e\	mi-	1cc	-ca-
.	.	4d\	.	.	.	.	.
!LO:TX:t=P:problem:kreska pseudotaktowa	!	!	!	!	!	!	!
2C/	-lis	1e	-ca-	1g	-se-	.	.
2.E/	pec-	.	.	.	.	2b/	-ta
.	.	4d\	.	4f\	.	1g	mun-
*	*	*	*Xij	*	*	*	*
4F/	.	4c\	-ta	4e\	.	.	.
=56-	=56-	=56-	=56-	=56-	=56-	=56-	=56-
2G/	-ca-	2B/	mun-	2d/	.	.	.
2A/	-ta	1c	.	2c/	.	2f,</	-di
!	!	!	!	!LO:TX:t=P:problem:kreska pseudotaktowa	!	!	!
1G	mun-	.	.	1d	.	1.g	mi-
.	.	2B/	-di	.	.	.	.
=57-	=57-	=57-	=57-	=57-	=57-	=57-	=57-
2C/	-di	2.c\	mi-	2.e\	-re-	.	.
!	!	!	!	!	!	!LO:TX:t=P:problem:kreska pseudotaktowa	!
1c	mi-	.	.	.	.	2g/	-ſe-
!	!	!LO:TX:t=P:problem:kreska pseudotaktowa	!	!	!	!	!
.	.	4d\	-ſe-	4f\	.	.	.
.	.	4e\	-re-	4g\	.	1cc	-re-
.	.	4f\	.	4f\	.	.	.
!LO:TX:t=P:problem:kreska pseudotaktowa	!	!	!	!	!	!	!
!LO:SIC:v:t=custos G	!	!	!	!	!	!	!
2c\	-ſe-	2.e\	.	2.g\	.	.	.
!LO:LB:g=original	!	!	!	!	!	!	!
=58-	=58-	=58-	=58-	=58-	=58-	=58-	=58-
2G/	-re-	.	.	.	.	(2b/	-re
.	.	4d\	-re	4f\	.	.	.
!	!	!	!	!LO:TX:t=P:problem:kreska pseudotaktowa	!	!	!
2B\	-re	1d	no-	2d/	-re	2g/)	.
1A	no-	.	.	1e	no-	1a	no-
.	.	2c\	.	.	.	.	.
=59-	=59-	=59-	=59-	=59-	=59-	=59-	=59-
!LO:TX:t=P:problem:kreska pseudotaktowa	!	!LO:TX:t=P:problem:kreska pseudotaktowa	!	!LO:TX:t=P:problem:kreska pseudotaktowa	!	!LO:TX:t=P:problem:kreska pseudotaktowa	!
1D	-bis	1d	-bis.	1d,<	-bis.	1a	-bis
1d	Qui	1r	.	1f	qui	1.a	Qui
=60-	=60-	=60-	=60-	=60-	=60-	=60-	=60-
2c\	tol-	2r	.	2e/	tol-	.	.
2B\	-lis	1d	Qui	2d/	-lis	2g/	tol-
!	!	!	!	!	!	!LO:TX:t=P:problem:kreska pseudotaktowa	!
1A	pec-	.	.	1.e	pec-	1a	-lis
.	.	2c\	tol-	.	.	.	.
=61-	=61-	=61-	=61-	=61-	=61-	=61-	=61-
2G/	-ca-	2B/	-lis	.	.	1r	.
1F	-ta	1c	pec-	2A/	-ca-	.	.
.	.	.	.	2.A/	.	2r	.
!	!	!LO:TX:t=P:problem:kreska pseudotaktowa	!	!	!	!	!
*	*	*	*	*	*	*	*ij
4E/	.	2d\	.	.	.	1dd\	Qui
!LO:TX:t=P:problem:kreska pseudotaktowa	!	!	!	!	!	!	!
4D/	.	.	.	4B/	.	.	.
=62-	=62-	=62-	=62-	=62-	=62-	=62-	=62-
1A	mun-	2e\	-ca-	4c/	.	.	.
.	.	.	.	4d/	.	.	.
.	.	2c\	-ta	4e/	.	2cc\	tol-
.	.	.	.	4f/	.	.	.
2G/	.	2d\	mun-	2g\	.	2b,<\	-lis
*	*	*	*	*	*	*	*Xij
2F/	.	1f\	.	2c/	-ta	1a/	pec-
=63-	=63-	=63-	=63-	=63-	=63-	=63-	=63-
1B	.	.	.	1d	mun-	.	.
!	!	!	!	!	!	!LO:TX:t=P:problem:kreska pseudotaktowa	!
.	.	4e\	.	.	.	2g/	-ca-
.	.	4d\	.	.	.	.	.
!LO:TX:t=P:problem:kreska pseudotaktowa	!	!LO:TX:t=P:problem:kreska pseudotaktowa	!	!LO:TX:t=P:problem:kreska pseudotaktowa	!	!	!
1A	-di.	1c	-di	1e	-di	2a/	-ta
.	.	.	.	.	.	2a/	mun-
=64-	=64-	=64-	=64-	=64-	=64-	=64-	=64-
!	!	!	!	!	!	!LO:TX:t=P:problem:kreska pseudotaktowa	!
1.D	Su-	1.d	Su-	1.f	Su-	1a	-di
.	.	.	.	.	.	1.a	Su-
2D/	-ſci-	2d\	-ſci-	2f\	-ſci-	.	.
=65-	=65-	=65-	=65-	=65-	=65-	=65-	=65-
!LO:TX:t=P:problem:kreska pseudotaktowa	!	!LO:TX:t=P:problem:kreska pseudotaktowa	!	!LO:TX:t=P:problem:kreska pseudotaktowa	!	!	!
!	!	!	!	!LO:SIC:v:t=custos g	!	!	!
0D	-pe	0d	-pe	0f	-pe	.	.
.	.	.	.	.	.	2a/	-ſci-
!	!	!	!	!	!	!LO:TX:t=P:problem:kreska pseudotaktowa	!
.	.	.	.	.	.	1a	-pe
!	!	!LO:LB:g=original	!	!LO:LB:g=original	!	!	!
=66-	=66-	=66-	=66-	=66-	=66-	=66-	=66-
1.G	de-	1.d	de-	1.g	de-	1.b	de-
!	!	!	!	!	!	!LO:TX:t=P:problem:kreska pseudotaktowa	!
!	!	!	!	!	!	!LO:SIC:v:t=custos b	!
2G/	-pre-	2d\	-pre-	2g\	-pre-	2b\	-pre-
!	!	!	!	!	!	!LO:LB:g=original	!
=67-	=67-	=67-	=67-	=67-	=67-	=67-	=67-
2G/	-a-	2d\	-ca-	2g\	-ca-	2b\	-ca-
!	!	!LO:TX:t=P:problem:kreska pseudotaktowa	!	!	!	!	!
2G/	-ti-	2d\	-ti-	2g\	-ti-	2b\	-ti-
!	!	!	!	!LO:TX:t=P:problem:kreska pseudotaktowa	!	!	!
1E	-o-	1e	-o-	1g	-o-	1b	-o-
=68-	=68-	=68-	=68-	=68-	=68-	=68-	=68-
1.A	.	1.c	-nem	1.e	-nem	1.cc	-nem
2D/	-nem	2d\	no-	2f\	no-	2a/	no-
=69-	=69-	=69-	=69-	=69-	=69-	=69-	=69-
!	!	!LO:TX:t=P:problem:kreska pseudotaktowa	!	!LO:TX:t=P:problem:kreska pseudotaktowa	!	!	!
*	*	*	*	*	*	*lig	*
1D	no-	0.d	-stram	1f	-ſtram	1a	-ſtram
!LO:TX:t=P:problem:kreska pseudotaktowa	!	!	!	!	!	!LO:TX:t=P:problem:kreska pseudotaktowa	!
0G	-stram	.	.	2rg	.	1b	.
.	.	.	.	2.g\	Qui	.	.
*	*	*	*	*	*	*Xlig	*
=70-	=70-	=70-	=70-	=70-	=70-	=70-	=70-
.	.	.	.	.	.	2r	.
.	.	.	.	4g\	se-	.	.
.	.	.	.	2g\	-des	2.dd\	Qui
00r	.	00rf	.	2f\	.	.	.
.	.	.	.	.	.	4dd\	se-
!	!	!	!	!LO:TX:t=P:problem:kreska pseudotaktowa	!	!	!
.	.	.	.	2g\	ad	2dd\	-des
=71-	=71-	=71-	=71-	=71-	=71-	=71-	=71-
.	.	.	.	2a\	dex-	2cc\	ad
!	!	!	!	!	!	!LO:TX:t=P:problem:kreska pseudotaktowa	!
.	.	.	.	1g	-te-	2dd\	dex-
.	.	.	.	.	.	2ee\	-te-
.	.	.	.	4f\	.	1dd	.
.	.	.	.	4e\	.	.	.
=72-	=72-	=72-	=72-	=72-	=72-	=72-	=72-
.	.	.	.	2.d/	-r(am)	.	.
.	.	.	.	.	.	4cc\	-ram
!	!	!LO:TX:t=P:problem:kreska pseudotaktowa	!	!	!	!LO:TX:t=P:problem:kreska pseudotaktowa	!
.	.	.	.	4e/	Pa-	4b\	.
!LO:TX:t=P:problem:kreska pseudotaktowa	!	!	!	!	!	!	!
1r	.	00rf	.	4f\	.	4a/	Pa-
.	.	.	.	4g\	.	4b/	.
.	.	.	.	2.a\	.	4cc/	.
.	.	.	.	.	.	4dd/	.
=73-	=73-	=73-	=73-	=73-	=73-	=73-	=73-
2r	.	.	.	.	.	2ee\	.
.	.	.	.	4g\	.	.	.
2d\	mi-	.	.	4f\	.	2.ff\	.
!	!	!	!	!LO:TX:t=P:problem:kreska pseudotaktowa	!	!	!
.	.	.	.	4e\	.	.	.
2d\	-ſe-	.	.	2.f\	.	.	.
.	.	.	.	.	.	4ee\	.
2d\	-re-	.	.	.	.	1dd	.
.	.	.	.	4g\	.	.	.
=74-	=74-	=74-	=74-	=74-	=74-	=74-	=74-
1A	-re	.	.	1e	.	.	.
.	.	.	.	.	.	2cc\	.
!	!	!	!	!LO:TX:t=P:problem:kreska pseudotaktowa	!	!LO:TX:t=P:problem:kreska pseudotaktowa	!
2B\	no-	2r	.	0d	-tris	0.dd	-tris.
2.G/	.	2g\	mi-	.	.	.	.
=75-	=75-	=75-	=75-	=75-	=75-	=75-	=75-
.	.	2g\	-ſe-	.	.	.	.
4F/	.	.	.	.	.	.	.
4G/	.	2g\	-re-	.	.	.	.
4A/	.	.	.	.	.	.	.
2.B-X\	.	2d\	-re	1r	.	.	.
!	!	!LO:TX:t=P:problem:kreska pseudotaktowa	!	!	!	!	!
.	.	2f\	no-	.	.	.	.
4A/	.	.	.	.	.	.	.
=76-	=76-	=76-	=76-	=76-	=76-	=76-	=76-
2G/	.	2e\	.	2r	.	0r	.
!LO:TX:t=P:problem:kreska pseudotaktowa	!	!	!	!	!	!	!
2F/	.	1d	.	2d/	Quo-	.	.
!LO:LB:g=original	!	!	!	!	!	!	!
1E	.	.	.	2e/	-ni-	.	.
.	.	2c/	.	2e/	-am	.	.
=77-	=77-	=77-	=77-	=77-	=77-	=77-	=77-
!LO:TX:t=P:problem:kreska pseudotaktowa	!	!	!	!	!	!	!
1D	-bis.	2d\	.	2f\	Tu	2rg	.
.	.	2f\	.	1a	.	2a/	Quo-
1r	.	1e	.	.	.	2b\	-ni-
!	!	!	!	!LO:TX:t=P:problem:kreska pseudotaktowa	!	!LO:TX:t=P:problem:kreska pseudotaktowa	!
.	.	.	.	2g\	so-	2b\	-am
=78-	=78-	=78-	=78-	=78-	=78-	=78-	=78-
!	!	!LO:TX:t=P:problem:kreska pseudotaktowa	!	!	!	!	!
2rF	.	1A	-bis	2a\	-l(us)	2cc\	tu
2D/	Tu	.	.	2f\	San-	1a	so-
2E/	so-	1rg	.	2.e/	.	.	.
2E/	-l(us)	.	.	.	.	2g/	-l(us)
.	.	.	.	4d/	.	.	.
=79-	=79-	=79-	=79-	=79-	=79-	=79-	=79-
2F/	Do-	2r	.	2c/	.	0a	San-
2D/	.	2d\	Tu	1d	.	.	.
1A	-mi-	2e\	so-	.	.	.	.
!	!	!	!	!LO:TX:t=P:problem:kreska pseudotaktowa	!	!	!
.	.	2e\	-lus	2c/	.	.	.
=80-	=80-	=80-	=80-	=80-	=80-	=80-	=80-
!LO:TX:t=P:problem:kreska pseudotaktowa	!	!	!	!	!	!LO:TX:t=P:problem:kreska pseudotaktowa	!
0D	-n(us)	2.f\	Do-	2.d/	.	1a	-ct(us)
.	.	4e\	.	4e/	.	.	.
.	.	2.d\	.	2.f\	.	2r	.
.	.	.	.	.	.	1dd	Tu
.	.	8c/L	.	8e/L	.	.	.
!	!	!LO:TX:t=P:problem:kreska pseudotaktowa	!	!	!	!	!
.	.	8B/J	.	8d/J	.	.	.
=81-	=81-	=81-	=81-	=81-	=81-	=81-	=81-
!	!	!	!	!LO:TX:t=P:problem:kreska pseudotaktowa	!	!	!
0r	.	1.A	.	1e	-ctus	.	.
.	.	.	.	.	.	2cc\	so-
!	!	!	!	!	!	!LO:TX:t=P:problem:kreska pseudotaktowa	!
.	.	.	.	2.e\	Tu	1ee	-l(us)
.	.	2c/	.	.	.	.	.
.	.	.	.	4f\	so-	.	.
=82-	=82-	=82-	=82-	=82-	=82-	=82-	=82-
2rF	.	4G/	.	2g\	-l(us)	1dd	al-
.	.	4A/	.	.	.	.	.
1G	Tu	4B/	.	1d	Do-	.	.
.	.	4c/	.	.	.	.	.
.	.	4d\	.	.	.	0a	.
.	.	4e\	.	.	.	.	.
2F/	so-	1d\	.	2f\	-mi-	.	.
=83-	=83-	=83-	=83-	=83-	=83-	=83-	=83-
!	!	!	!	!LO:TX:t=P:problem:kreska pseudotaktowa	!	!	!
!	!	!	!	!LO:SIC:v:t=custos g	!	!	!
1A	-l(us)	.	.	1e	-n(us)	.	.
.	.	2c\	-mi-	.	.	.	.
!LO:TX:t=P:problem:kreska pseudotaktowa	!	!LO:TX:t=P:problem:kreska pseudotaktowa	!	!LO:LB:g=original	!	!	!
1G	al-	1d	-n(us)	2r	.	1b	.
.	.	.	.	1g\	Tu	.	.
=84-	=84-	=84-	=84-	=84-	=84-	=84-	=84-
2.D/	-tiſ-	2r	.	.	.	1.a	-tiſ-
!	!	!	!	!LO:TX:t=P:problem:kreska pseudotaktowa	!	!	!
.	.	1d	Tu	2f\	so-	.	.
4E/	.	.	.	.	.	.	.
4F/	.	.	.	1.a	-lus	.	.
4G/	.	.	.	.	.	.	.
!	!	!	!	!	!	!LO:TX:t=P:problem:kreska pseudotaktowa	!
!	!	!LO:TX:t=P:problem:kreska pseudotaktowa	!	!	!	!LO:SIC:v:t=custos cc	!
2.A\	.	2c\	so-	.	.	2cc\	-si-
!	!	!LO:LB:g=original	!	!	!	!LO:LB:g=original	!
=85-	=85-	=85-	=85-	=85-	=85-	=85-	=85-
.	.	1e	-lus	.	.	2cc\	-mus
4Bny\	.	.	.	.	.	.	.
!LO:TX:t=P:problem:kreska pseudotaktowa	!	!	!	!	!	!	!
*	*	*	*	*	*	*	*ij
2c\	-si-	.	.	1g	al-	2cc\	al-
2G,</	-m(us)	1d	al-	.	.	2b/	-tiſ-
1d	Je-	.	.	2f\	-tiſ-	4a/	-si-
.	.	.	.	.	.	4g/	.
=86-	=86-	=86-	=86-	=86-	=86-	=86-	=86-
!	!	!	!	!	!	!LO:TX:t=P:problem:kreska pseudotaktowa	!
.	.	2A/	-tiſ-	2e\	-si-	1a	-mus
*	*	*	*	*	*	*	*Xij
!	!	!LO:TX:t=P:problem:kreska pseudotaktowa	!	!	!	!	!
2c\	-su	2A/	-si-	1a	.	.	.
*lig	*	*	*	*	*	*	*
1B-X	Chri-	1d	-m(us)	.	.	2r	.
.	.	.	.	2g\	.	1dd	Je-
=87-	=87-	=87-	=87-	=87-	=87-	=87-	=87-
!	!	!	!	!LO:TX:t=P:problem:kreska pseudotaktowa	!	!	!
1A	.	2.e\	Je-	1a	-m(us)	.	.
.	.	.	.	.	.	2cc\	-su
.	.	4f\	.	.	.	.	.
*Xlig	*	*	*	*	*	*	*
2G/	.	2g,\	-su	2d/	Je-	2b/	X-
*	*	*	*ij	*	*	*	*
2F/	.	2c/	Je-	1f\	.	1a/	.
=88-	=88-	=88-	=88-	=88-	=88-	=88-	=88-
!LO:TX:t=P:problem:kreska pseudotaktowa	!	!LO:TX:t=P:problem:kreska pseudotaktowa	!	!	!	!	!
1B-	-ste.	1d	.	.	.	.	.
!	!	!	!	!	!	!LO:TX:t=P:problem:kreska pseudotaktowa	!
.	.	.	.	4e/	.	2g,</	-te
.	.	.	.	4d/	.	.	.
!	!	!	!	!LO:TX:t=P:problem:kreska pseudotaktowa	!	!	!
*	*ij	*	*	*	*	*	*ij
2.A/	Je-	2e\	.	1c	-su	1.a	Je-
.	.	2f,<\	-su	.	.	.	.
*	*	*	*Xij	*	*	*	*
4G/	.	.	.	.	.	.	.
=89-	=89-	=89-	=89-	=89-	=89-	=89-	=89-
4A\	.	1.e	X-	2.c/	Chri-	.	.
4B-	.	.	.	.	.	.	.
1c	.	.	.	.	.	2g/	.
.	.	.	.	4d/	.	.	.
.	.	.	.	4e\	.	2a/	-su
.	.	.	.	4f\	.	.	.
!LO:TX:t=P:problem:♮ above	!	!	!	!	!	!	!
2Bn\	-su	2d\	.	1g\	.	2b\	.
=90-	=90-	=90-	=90-	=90-	=90-	=90-	=90-
1A	Chri-	1c	.	.	.	1cc	X-
.	.	.	.	2f\	.	.	.
!LO:TX:t=P:problem:kreska pseudotaktowa	!	!LO:TX:t=P:problem:kreska pseudotaktowa	!	!LO:TX:t=P:problem:kreska pseudotaktowa	!	!LO:TX:t=P:problem:kreska pseudotaktowa	!
0.G	-ste.	1d	te	00.g	-ste	0.b	-te
*	*Xij	*	*	*	*	*	*Xij
=91-	=91-	=91-	=91-	=91-	=91-	=91-	=91-
.	.	2r	.	.	.	.	.
.	.	2d\	Cum	.	.	.	.
.	.	2d\	S(an)-	.	.	.	.
.	.	2d\	-cto	.	.	.	.
=92-	=92-	=92-	=92-	=92-	=92-	=92-	=92-
!LO:TX:t=P:problem:kreska pseudotaktowa	!	!	!	!	!	!	!
!LO:SIC:v:t=custos G	!	!	!	!	!	!	!
1r	.	2.c\	San-	.	.	00r	.
.	.	4d\	.	.	.	.	.
!LO:PB:g=original	!	!	!	!	!	!	!
2rF	.	2e\	.	.	.	.	.
2G/	Cum	1d	.	.	.	.	.
=93-	=93-	=93-	=93-	=93-	=93-	=93-	=93-
2G/	S(an)-	.	.	.	.	.	.
!LO:TX:t=P:problem:kreska pseudotaktowa	!	!	!	!	!	!	!
2G/	-cto	4c/	.	.	.	.	.
!	!	!LO:TX:t=P:problem:kreska pseudotaktowa	!	!	!	!	!
.	.	4B/	.	.	.	.	.
2.F/	San-	2.A/	.	0r	.	.	.
4G/	.	4B/	.	.	.	.	.
=94-	=94-	=94-	=94-	=94-	=94-	=94-	=94-
2A/	.	4c\	.	.	.	0r	.
.	.	4d\	.	.	.	.	.
2.G/	.	1e	-cto	.	.	.	.
!	!	!	!	!LO:TX:t=P:problem:kreska pseudotaktowa	!	!	!
.	.	.	.	1r	.	.	.
4F/	.	.	.	.	.	.	.
4E/	.	1d	Spi-	.	.	.	.
!LO:TX:t=P:problem:kreska pseudotaktowa	!	!	!	!	!	!	!
4D/	-cto	.	.	.	.	.	.
=95-	=95-	=95-	=95-	=95-	=95-	=95-	=95-
!	!	!	!	!	!	!LO:TX:t=P:problem:kreska pseudotaktowa	!
1E	Spi-	.	.	2r	.	1r	.
.	.	2c/	-ri-	1g	in	.	.
*lig	*	*	*	*	*	*	*
!	!	!LO:TX:t=P:problem:kreska pseudotaktowa	!	!	!	!	!
1D	-ri-	1d	-tu	.	.	2r	.
.	.	.	.	2f\	glo-	1dd\	in
=96-	=96-	=96-	=96-	=96-	=96-	=96-	=96-
!LO:TX:t=P:problem:kreska pseudotaktowa	!	!	!	!	!	!	!
1A	-tu	1r	.	2e/	-ri-	.	.
!	!	!	!	!	!	!LO:TX:t=P:problem:kreska pseudotaktowa	!
.	.	.	.	2c/	-a	2cc\	glo-
*Xlig	*	*	*	*	*	*	*
!LO:TX:t=P:problem:kreska pseudotaktowa	!	!	!	!	!	!	!
1r	.	2re	.	2d/	De-	2b/	-ri-
.	.	1g\	in	2e/	-i	2g/	-a
=97-	=97-	=97-	=97-	=97-	=97-	=97-	=97-
2r	.	.	.	1d	Pa-	1a	De-
1d	in	2f\	glo-	.	.	.	.
!	!	!	!	!LO:TX:t=P:problem:kreska pseudotaktowa	!	!LO:TX:t=P:problem:kreska pseudotaktowa	!
.	.	2e\	-ri-	1A	-tris	1a	-i
!LO:TX:t=P:problem:kreska pseudotaktowa	!	!	!	!	!	!	!
2c\	glo-	2c\	-a	.	.	.	.
=98-	=98-	=98-	=98-	=98-	=98-	=98-	=98-
2Bn\	-ri-	2.d\	De-	0r	.	2r	.
*	*	*	*	*	*	*	*ij
2G/	-a	.	.	.	.	1dd	in
!	!	!LO:TX:t=P:problem:kreska pseudotaktowa	!	!	!	!	!
.	.	4e\	.	.	.	.	.
1A	De-	2f\	-i	.	.	.	.
.	.	1e	Pa-	.	.	2cc\	glo-
=99-	=99-	=99-	=99-	=99-	=99-	=99-	=99-
!LO:TX:t=P:problem:kreska pseudotaktowa	!	!	!	!	!	!	!
1G	-i	.	.	1g	in	2b/	-ri-
.	.	1d	.	.	.	2g/	-a
!	!	!	!	!	!	!LO:TX:t=P:problem:kreska pseudotaktowa	!
2D/	Pa-	.	.	2.f\	glo-	1a	Dei-
!	!	!LO:TX:t=P:problem:kreska pseudotaktowa	!	!	!	!	!
2F/	.	2c/	-tris	.	.	.	.
.	.	.	.	4e/	-ri-	.	.
=100-	=100-	=100-	=100-	=100-	=100-	=100-	=100-
1G	.	4B/	A-	2d/	-a	2.g/	-i
*	*	*	*	*	*	*	*Xij
.	.	4A/	.	.	.	.	.
!	!	!	!	!LO:TX:t=P:problem:kreska pseudotaktowa	!	!	!
.	.	4B/	.	2d/	De-	.	.
.	.	4c/	.	.	.	4a/	Pa-
2.D/	-tris	1d	.	2f\	-i	2b/	.
.	.	.	.	1f	Pa-	2.a/	.
4E/	.	.	.	.	.	.	.
=101-	=101-	=101-	=101-	=101-	=101-	=101-	=101-
2F/	A-	2c/	.	.	.	.	.
.	.	.	.	.	.	4g/	-tris
2G/	.	2B/	.	2d/	-tris	1g	A-
1D	.	1A	.	1d	A-	.	.
!	!	!	!	!	!	!LO:TX:t=P:problem:♯ above	!
.	.	.	.	.	.	2f#X/	.
=102-	=102-	=102-	=102-	=102-	=102-	=102-	=102-
0Gl;	-men.	0Bl;	-men.	0dl;	-men.	0gl;	-men.
==	==	==	==	==	==	==	==
*-	*-	*-	*-	*-	*-	*-	*-
!!!system-decoration: [g1]
!!!RDF**kern: > = above
!!!RDF**kern: < = below
!!!RDF**kern: l = terminal long
!!!ENC: Andrzej Kubiczek
!!!END: 2021-03-16
!!!ENC: Andrzej Kubiczek
!!!END: 2021-02-28
